src/topics/icons/saltstack.svg

<svg height="233" preserveAspectRatio="xMidYMid" viewBox="0 0 256 233" width="256" xmlns="http://www.w3.org/2000/svg"><path d="m138.927118 78.2442835v39.9685035l58.362205-29.5226453.004031-57.7824252-23.212598 11.1997481v18.15937z" fill="#4396b9" transform="matrix(1 0 0 -1 0 149.120504)"/><path d="m216.112126 143.256189 15.124157-7.733165-57.011905-28.509985-.143622 38.03641 23.212598-11.199748z" fill="#b8dde8" transform="matrix(1 0 0 -1 0 252.062488)"/><path d="m138.927118 70.8762205-23.792378-11.8208504 23.792378-12.168315z" fill="#75bed5" transform="matrix(1 0 0 -1 0 117.763276)"/><path d="m116.284472 117.128063-.487307 57.574047-57.8945508 28.816882-57.9026142 28.594394v-58.410331l.0187008-.009827.55905542-56.569952 55.98715718-27.995213 1.680126-.8385512.1171653-.055937 57.9320943-28.895748v57.7854492z" fill="#4396b9" transform="matrix(1 0 0 -1 0 291.451212)"/><path d="m231.236283 204.427591-57.155527-28.583811v56.269606l-58.283591-27.895433.497134-58.78652v-56.5777637l57.786457 28.8957477v.316977l57.155527 28.572724z" fill="#75bed5" transform="matrix(1 0 0 -1 0 320.967056)"/><path d="m255.082835 60.4222992-57.789481-28.8897008v57.7824252l57.789481 28.8977634z" fill="#75bed5" transform="matrix(1 0 0 -1 0 149.745386)"/><path d="m138.927118 85.8514646 58.362205-29.5226457 57.793512 28.8977638-58.945008 30.1495433-39.822866-20.5513071-42.861103 21.9242831-58.10948-30.2548658-55.344378-29.0728819 57.9026142-28.5943937 57.8945508-28.81688186 58.283591 27.89543306-58.946016 30.1457638-.759685-.391811-.146646.0738267.906331.3179843 23.792378 11.8208504z" fill="#b8dde8" transform="matrix(1 0 0 -1 0 116.759182)"/></svg>

<?xml version="1.0" encoding="UTF-8" standalone="no"?>
<svg width="256px" height="233px" viewBox="0 0 256 233" version="1.1" xmlns="http://www.w3.org/2000/svg" xmlns:xlink="http://www.w3.org/1999/xlink" preserveAspectRatio="xMidYMid">
	<g>
		<path d="M138.927118,78.2442835 L138.927118,118.212787 L197.289323,88.6901417 L197.293354,30.9077165 L174.080756,42.1074646 L174.080756,60.2668346 L138.927118,78.2442835" fill="#4396B9" transform="translate(168.110236, 74.560252) scale(1, -1) translate(-168.110236, -74.560252) "></path>
		<path d="M216.112126,143.256189 L231.236283,135.523024 L174.224378,107.013039 L174.080756,145.049449 L197.293354,133.849701 L216.112126,143.256189" fill="#B8DDE8" transform="translate(202.658520, 126.031244) scale(1, -1) translate(-202.658520, -126.031244) "></path>
		<path d="M138.927118,70.8762205 L115.13474,59.0553701 L138.927118,46.8870551 L138.927118,70.8762205" fill="#75BED5" transform="translate(127.030929, 58.881638) scale(1, -1) translate(-127.030929, -58.881638) "></path>
		<path d="M116.284472,117.128063 L115.797165,174.70211 L57.9026142,203.518992 L0,232.113386 L0,173.703055 L0.0187008,173.693228 L0.57775622,117.123276 L56.5649134,89.128063 L58.2450394,88.2895118 L58.3622047,88.2335748 L116.294299,59.3378268 L116.294299,117.123276 L116.284472,117.128063" fill="#4396B9" transform="translate(58.147150, 145.725606) scale(1, -1) translate(-58.147150, -145.725606) "></path>
		<path d="M231.236283,204.427591 L174.080756,175.84378 L174.080756,232.113386 L115.797165,204.217953 L116.294299,145.431433 L116.294299,88.8536693 L174.080756,117.749417 L174.080756,118.066394 L231.236283,146.639118 L231.236283,204.427591" fill="#75BED5" transform="translate(173.516724, 160.483528) scale(1, -1) translate(-173.516724, -160.483528) "></path>
		<path d="M255.082835,60.4222992 L197.293354,31.5325984 L197.293354,89.3150236 L255.082835,118.212787 L255.082835,60.4222992" fill="#75BED5" transform="translate(226.188094, 74.872693) scale(1, -1) translate(-226.188094, -74.872693) "></path>
		<path d="M138.927118,85.8514646 L197.289323,56.3288189 L255.082835,85.2265827 L196.137827,115.376126 L156.314961,94.8248189 L113.453858,116.749102 L55.344378,86.4942362 L0,57.4213543 L57.9026142,28.8269606 L115.797165,0.0100787402 L174.080756,27.9055118 L115.13474,58.0512756 L114.375055,57.6594646 L114.228409,57.7332913 L115.13474,58.0512756 L138.927118,69.872126 L138.927118,85.8514646" fill="#B8DDE8" transform="translate(127.541417, 58.379591) scale(1, -1) translate(-127.541417, -58.379591) "></path>
	</g>
</svg>
